lib/brands/logos/elsevier.svg

<svg xmlns="http://www.w3.org/2000/svg" fill="none" aria-hidden="true" viewBox="0 0 293 47"><g id="Elsevier"><path id="Vector" fill="#FF6C00" d="M260.932 8.66229V22.9393H264.682C270.066 22.9393 272.565 20.055 272.565 15.7767C272.565 12.3156 270.883 8.66229 263.768 8.66229H260.932ZM275.834 41.4464C271.937 36.3204 268.264 31.0277 264.826 25.5831H260.98V38.7545L266.797 39.3313V41.6387C264.105 41.5426 262.23 41.4464 259.923 41.4464H255.789C253.481 41.4464 251.222 41.5426 248.578 41.6387V39.3313L254.779 38.7545V8.61422L248.53 8.13351V5.72998C251.895 5.87419 254.298 5.97032 256.221 5.97032H264.874C272.469 5.97032 279.055 8.61422 279.055 15.4883C279.055 20.2954 275.498 23.0354 271.027 24.3814C274.236 29.5778 277.956 34.441 282.131 38.8987L285.929 39.2833V41.6387L275.834 41.4464V41.4464ZM190.172 8.66229L184.115 8.13351V5.77806L191.182 5.97032H195.316L202.623 5.77806V8.08544L196.373 8.66229V38.8026L202.623 39.2833V41.6387C199.931 41.5426 197.623 41.4464 195.316 41.4464H191.182C188.922 41.4464 186.615 41.5426 183.971 41.6387V39.2833L190.172 38.8026V8.66229V8.66229ZM175.703 8.66229L164.118 41.831H159.455L147.918 8.66229L143.544 8.13351V5.77806L151.379 5.97032L160.272 5.77806V8.08544L154.552 8.66229L163.349 35.1011L172.002 8.66229L166.329 8.13351V5.77806L173.636 5.97032L179.789 5.77806V8.08544L175.703 8.66229V8.66229ZM13.3685 38.7545V8.61422L7.11936 8.13351V5.72998C10.4843 5.87419 12.8878 5.97032 14.378 5.97032H32.1161L32.5968 3.95137H35.0965V14.0943H32.5968L31.6354 8.61422H19.5216V22.2663H28.4627L29.1357 18.2283H31.4912V28.8519H29.1357L28.4627 24.8621H19.5216V35.6299C19.5216 38.0334 19.6658 38.3219 19.81 38.4661C19.9542 38.6103 20.4349 38.7545 24.3767 38.7545H27.9339C30.8182 38.7545 32.2122 38.5622 32.8371 37.9373C33.5101 37.2643 34.2793 35.4376 35.2407 31.4478H37.6442L36.6828 41.4464H16.6373C13.2724 41.4464 9.6671 41.5426 7.07129 41.6387V39.2833L13.3205 38.8026L13.3685 38.7545ZM102.588 32.4092C102.588 38.5141 97.5882 42.1194 91.0506 42.1194C87.6857 42.1194 84.465 41.0619 82.2057 39.6198L81.5807 42.4079H79.1772V30.4863H81.5807C81.8211 32.1207 82.2057 34.2359 82.5421 35.726C84.6092 37.8892 87.9261 39.4275 90.8103 39.4275C94.6559 39.4275 96.8191 37.2162 96.8191 33.7552C96.8191 25.6793 79.9463 25.5831 79.9463 14.5269C79.9463 8.66229 84.7534 5.29734 90.9064 5.29734C93.31 5.29734 95.7135 5.77806 97.5402 6.54719L98.2612 3.85522H100.617V14.2866H98.2132C97.9819 12.7311 97.6609 11.1902 97.2518 9.67176C95.5814 8.574 93.6263 7.98914 91.6275 7.9893C88.1664 7.9893 85.6187 9.57563 85.6187 13.1329C85.6187 21.0164 102.588 21.0645 102.588 32.3611V32.4092ZM51.2482 38.7545V8.61422L44.999 8.13351V5.72998C48.3639 5.87419 50.7675 5.97032 52.3057 5.97032H56.3917L63.6985 5.77806V8.08544L57.4493 8.61422V35.9183C57.4493 37.6008 57.4493 38.2257 57.7858 38.5141C57.93 38.7064 59.8048 38.7545 62.016 38.7545H63.8427C67.1115 38.7545 68.169 38.418 68.6497 37.9373C69.3227 37.2162 70.2361 35.3415 71.2936 30.1018H73.6972L72.9761 41.4464H54.2286C50.6233 41.4464 47.691 41.5426 44.999 41.6387V39.3313L51.2482 38.7545V38.7545ZM116.336 38.7545V8.61422L110.087 8.13351V5.72998C113.452 5.87419 115.855 5.97032 117.778 5.97032H135.083L135.564 3.95137H138.064V14.0943H135.612L134.651 8.61422H122.537V22.2663H131.43L132.151 18.2283H134.458V28.8519H132.151L131.43 24.9102H122.537V35.6299C122.537 38.0334 122.633 38.3219 122.777 38.4661C122.97 38.6103 123.402 38.7545 127.344 38.7545H131.622C134.506 38.7545 135.901 38.5622 136.477 37.9373C137.198 37.2643 137.968 35.4376 138.881 31.4478H141.333L140.323 41.4464H119.653C116.336 41.4464 112.73 41.5426 110.135 41.6387V39.2833L116.336 38.8026V38.7545ZM216.851 38.7545V8.61422L210.602 8.13351V5.72998C213.967 5.87419 216.371 5.97032 218.294 5.97032H235.599L236.128 3.95137H238.579V14.0943H236.176L235.214 8.61422H223.053V22.2663H231.994L232.667 18.2283H235.022V28.8519H232.667L231.994 24.9102H223.053V35.6299C223.053 38.0334 223.197 38.3219 223.341 38.4661C223.485 38.6103 223.966 38.7545 227.908 38.7545H231.561C234.445 38.7545 235.743 38.5622 236.368 37.9373C237.041 37.2643 237.81 35.4376 238.772 31.4478H241.175L240.214 41.4464H220.216C216.851 41.4464 213.246 41.5426 210.602 41.6387V39.2833L216.851 38.8026V38.7545Z"/></g></svg>

<svg xmlns="http://www.w3.org/2000/svg" fill="none" aria-hidden="true" viewBox="0 0 293 47"><path fill="#FF6C00" d="M260.932 8.662V22.94h3.75c5.384 0 7.883-2.884 7.883-7.162 0-3.461-1.682-7.115-8.797-7.115h-2.836Zm14.902 32.784a222.523 222.523 0 0 1-11.008-15.863h-3.846v13.172l5.817.576v2.308c-2.692-.096-4.567-.193-6.874-.193h-4.134c-2.308 0-4.567.097-7.211.193V39.33l6.201-.577V8.614l-6.249-.48V5.73c3.365.144 5.768.24 7.691.24h8.653c7.595 0 14.181 2.644 14.181 9.518 0 4.807-3.557 7.547-8.028 8.893A91.793 91.793 0 0 0 282.131 38.9l3.798.384v2.356l-10.095-.193ZM190.172 8.662l-6.057-.528V5.778l7.067.192h4.134l7.307-.192v2.307l-6.25.577v30.14l6.25.481v2.356c-2.692-.096-5-.193-7.307-.193h-4.134c-2.26 0-4.567.097-7.211.193v-2.356l6.201-.48V8.663Zm-14.469 0-11.585 33.169h-4.663L147.918 8.662l-4.374-.528V5.778l7.835.192 8.893-.192v2.307l-5.72.577 8.797 26.44 8.653-26.44-5.673-.528V5.778l7.307.192 6.153-.192v2.307l-4.086.577ZM13.369 38.755V8.614l-6.25-.481V5.73c3.365.144 5.769.24 7.259.24h17.738l.48-2.019h2.5v10.143h-2.5l-.96-5.48H19.521v13.652h8.94l.674-4.038h2.355v10.624h-2.355l-.673-3.99h-8.941V35.63c0 2.403.144 2.692.288 2.836.144.144.625.288 4.567.288h3.557c2.884 0 4.278-.192 4.903-.817.673-.673 1.442-2.5 2.404-6.49h2.403l-.961 10H16.637c-3.365 0-6.97.096-9.566.192v-2.356l6.25-.48.047-.048Zm89.219-6.346c0 6.105-5 9.71-11.537 9.71-3.365 0-6.586-1.057-8.845-2.5l-.625 2.789h-2.404V30.486h2.404c.24 1.635.625 3.75.961 5.24 2.067 2.163 5.384 3.702 8.268 3.702 3.846 0 6.01-2.212 6.01-5.673 0-8.076-16.874-8.172-16.874-19.228 0-5.865 4.807-9.23 10.96-9.23 2.404 0 4.807.481 6.634 1.25l.721-2.692h2.356v10.432h-2.404a40.817 40.817 0 0 0-.961-4.615 10.24 10.24 0 0 0-5.624-1.683c-3.462 0-6.01 1.587-6.01 5.144 0 7.883 16.97 7.931 16.97 19.228v.048Zm-51.34 6.346V8.614L45 8.133V5.73c3.365.144 5.768.24 7.307.24h4.086l7.306-.192v2.307l-6.249.53v27.303c0 1.683 0 2.308.337 2.596.144.192 2.019.24 4.23.24h1.827c3.269 0 4.326-.336 4.807-.817.673-.72 1.586-2.595 2.644-7.835h2.403l-.72 11.344h-18.75c-3.606 0-6.538.097-9.23.193V39.33l6.25-.577Zm65.088 0V8.614l-6.249-.481V5.73c3.365.144 5.768.24 7.691.24h17.305l.481-2.019h2.5v10.143h-2.452l-.961-5.48h-12.114v13.652h8.893l.721-4.038h2.307v10.624h-2.307l-.721-3.942h-8.893v10.72c0 2.403.096 2.692.24 2.836.193.144.625.288 4.567.288h4.278c2.884 0 4.279-.192 4.855-.817.721-.673 1.491-2.5 2.404-6.49h2.452l-1.01 10h-20.67c-3.317 0-6.923.096-9.518.192v-2.356l6.201-.48v-.048Zm100.515 0V8.614l-6.249-.481V5.73c3.365.144 5.769.24 7.692.24h17.305l.529-2.019h2.451v10.143h-2.403l-.962-5.48h-12.161v13.652h8.941l.673-4.038h2.355v10.624h-2.355l-.673-3.942h-8.941v10.72c0 2.403.144 2.692.288 2.836.144.144.625.288 4.567.288h3.653c2.884 0 4.182-.192 4.807-.817.673-.673 1.442-2.5 2.404-6.49h2.403l-.961 10h-19.998c-3.365 0-6.97.096-9.614.192v-2.356l6.249-.48v-.048Z"/></svg>
